Mono Glyph Icons/misc/misc-unfilled/experiment.svg

<svg height="48" viewBox="0 -960 960 960" width="48" xmlns="http://www.w3.org/2000/svg"><path d="m172-95q-58.78 0-82.89-53t15.89-98l242-273v-244h-29q-19.75 0-33.37-13.68-13.63-13.67-13.63-33.5 0-19.82 13.63-33.32 13.62-13.5 33.37-13.5h324q19.75 0 33.88 13.68 14.12 13.67 14.12 33.5 0 19.82-14.12 33.32-14.13 13.5-33.88 13.5h-28v244l242 273q39 45 14.89 98t-82.89 53zm90-124h437l-145-167h-147zm-82 30h601l-262-295v-279h-78v279z"/></svg>

<svg xmlns="http://www.w3.org/2000/svg" height="48" viewBox="0 -960 960 960" width="48"><path d="M172-95q-58.78 0-82.89-53T105-246l242-273v-244h-29q-19.75 0-33.37-13.68Q271-790.35 271-810.18q0-19.82 13.63-33.32Q298.25-857 318-857h324q19.75 0 33.88 13.68Q690-829.65 690-809.82q0 19.82-14.12 33.32Q661.75-763 642-763h-28v244l242 273q39 45 14.89 98T788-95H172Zm90-124h437L554-386H407L262-219Zm-82 30h601L519-484v-279h-78v279L180-189Zm300-287Z"/></svg>
